img/work3.svg

<svg width="48" height="48" viewBox="0 0 48 48" fill="none" xmlns="http://www.w3.org/2000/svg">
<circle cx="24" cy="24" r="24" fill="#F7EBF9"/>
<path d="M30.8571 24.4288C30.8571 24.3379 30.821 24.2507 30.7567 24.1864C30.6924 24.1221 30.6052 24.0859 30.5143 24.0859H17.4857C17.3948 24.0859 17.3076 24.1221 17.2433 24.1864C17.179 24.2507 17.1429 24.3379 17.1429 24.4288V30.9431H30.8571V24.4288ZM24 28.8859C23.6363 28.8859 23.2874 28.7414 23.0303 28.4843C22.7731 28.2271 22.6286 27.8782 22.6286 27.5145C22.6286 27.1508 22.7731 26.802 23.0303 26.5448C23.2874 26.2876 23.6363 26.1431 24 26.1431V26.8288C23.8644 26.8288 23.7318 26.869 23.619 26.9444C23.5063 27.0197 23.4184 27.1268 23.3665 27.2521C23.3146 27.3774 23.301 27.5153 23.3275 27.6483C23.3539 27.7813 23.4192 27.9035 23.5151 27.9994C23.611 28.0953 23.7332 28.1606 23.8662 28.187C23.9992 28.2135 24.1371 28.1999 24.2624 28.148C24.3877 28.0961 24.4948 28.0082 24.5701 27.8955C24.6455 27.7827 24.6857 27.6501 24.6857 27.5145H25.3714C25.3714 27.8782 25.2269 28.2271 24.9697 28.4843C24.7126 28.7414 24.3637 28.8859 24 28.8859Z" fill="#B84DC5"/>
<path d="M24.0926 17.2148C24.0322 17.2331 23.9678 17.2331 23.9074 17.2148L21.1474 16.4263L20.9589 17.9143H27.0411L26.8526 16.4263L24.0926 17.2148Z" fill="#B84DC5"/>
<path d="M15.8331 32.3144C15.7932 32.2045 15.7724 32.0886 15.7714 31.9716V31.6287C15.772 31.447 15.8444 31.2729 15.9729 31.1445C16.1013 31.016 16.2754 30.9436 16.4571 30.943V29.9487C16.2069 29.9999 15.9712 30.1064 15.7673 30.2604C15.5635 30.4144 15.3967 30.612 15.279 30.8387C15.1614 31.0655 15.0959 31.3157 15.0873 31.571C15.0788 31.8263 15.1275 32.0803 15.2297 32.3144H15.8331Z" fill="#B84DC5"/>
<path d="M14.4 33H33.6V33.6857H14.4V33Z" fill="#B84DC5"/>
<path d="M32.2286 31.6287V31.9716C32.2276 32.0886 32.2068 32.2045 32.1669 32.3144H32.7703C32.8642 32.098 32.9132 31.8647 32.9143 31.6287C32.9133 31.2338 32.7764 30.8513 32.5267 30.5454C32.277 30.2395 31.9296 30.0288 31.5429 29.9487V30.943C31.7246 30.9436 31.8987 31.016 32.0271 31.1445C32.1556 31.2729 32.228 31.447 32.2286 31.6287Z" fill="#B84DC5"/>
<path d="M32.2286 27.1715C32.228 26.9588 32.1618 26.7516 32.0391 26.5779C31.9164 26.4043 31.7431 26.2727 31.5429 26.2012V29.256C31.7804 29.2901 32.0115 29.3594 32.2286 29.4617V27.1715Z" fill="#B84DC5"/>
<path d="M16.4571 26.2012C16.2569 26.2727 16.0836 26.4043 15.9609 26.5779C15.8382 26.7516 15.772 26.9588 15.7714 27.1715V29.4617C15.9885 29.3594 16.2196 29.2901 16.4571 29.256V26.2012Z" fill="#B84DC5"/>
<path d="M16.4571 31.9715C16.4571 32.0625 16.4932 32.1497 16.5575 32.214C16.6218 32.2783 16.709 32.3144 16.8 32.3144H31.2C31.2909 32.3144 31.3781 32.2783 31.4424 32.214C31.5067 32.1497 31.5428 32.0625 31.5428 31.9715V31.6287H16.4571V31.9715Z" fill="#B84DC5"/>
<path d="M22.0697 23.4001H25.9269C26.0169 23.3335 26.1017 23.2602 26.1806 23.1807C26.4681 22.8951 26.6961 22.5553 26.8515 22.181C27.0068 21.8067 27.0864 21.4053 27.0857 21.0001V20.3144C27.2676 20.3144 27.442 20.2421 27.5706 20.1135C27.6992 19.9849 27.7714 19.8105 27.7714 19.6287C27.7714 19.4468 27.6992 19.2724 27.5706 19.1438C27.442 19.0152 27.2676 18.943 27.0857 18.943V18.6001H20.9143V18.943C20.7324 18.943 20.558 19.0152 20.4294 19.1438C20.3008 19.2724 20.2286 19.4468 20.2286 19.6287C20.2286 19.8105 20.3008 19.9849 20.4294 20.1135C20.558 20.2421 20.7324 20.3144 20.9143 20.3144V21.0001C20.9163 21.4609 21.0211 21.9154 21.221 22.3306C21.4209 22.7457 21.7108 23.1111 22.0697 23.4001ZM25.0286 19.9715C25.0286 19.8806 25.0647 19.7934 25.129 19.7291C25.1933 19.6648 25.2805 19.6287 25.3714 19.6287C25.4624 19.6287 25.5496 19.6648 25.6139 19.7291C25.6782 19.7934 25.7143 19.8806 25.7143 19.9715V20.6572C25.7143 20.7482 25.6782 20.8354 25.6139 20.8997C25.5496 20.964 25.4624 21.0001 25.3714 21.0001C25.2805 21.0001 25.1933 20.964 25.129 20.8997C25.0647 20.8354 25.0286 20.7482 25.0286 20.6572V19.9715ZM22.2857 19.9715C22.2857 19.8806 22.3218 19.7934 22.3861 19.7291C22.4504 19.6648 22.5376 19.6287 22.6286 19.6287C22.7195 19.6287 22.8067 19.6648 22.871 19.7291C22.9353 19.7934 22.9714 19.8806 22.9714 19.9715V20.6572C22.9714 20.7482 22.9353 20.8354 22.871 20.8997C22.8067 20.964 22.7195 21.0001 22.6286 21.0001C22.5376 21.0001 22.4504 20.964 22.3861 20.8997C22.3218 20.8354 22.2857 20.7482 22.2857 20.6572V19.9715ZM22.9714 22.0287C22.9714 22.114 23.3362 22.3715 24 22.3715C24.6638 22.3715 25.0286 22.114 25.0286 22.0287H25.7143C25.7143 22.615 24.9775 23.0572 24 23.0572C23.0225 23.0572 22.2857 22.615 22.2857 22.0287H22.9714Z" fill="#B84DC5"/>
<path d="M27.4286 15.6858V18.2572H28.1143V15.5143L24 13.8L19.8857 15.5143L24 16.5429L27.4286 15.6858Z" fill="#B84DC5"/>
</svg>

<svg width="48" height="48" fill="none" xmlns="http://www.w3.org/2000/svg"><circle cx="24" cy="24" r="24" fill="#F7EBF9"/><path d="M30.857 24.429a.343.343 0 0 0-.343-.343H17.486a.343.343 0 0 0-.343.343v6.514h13.714V24.43ZM24 28.886a1.372 1.372 0 1 1 0-2.743v.686a.686.686 0 1 0 .686.686h.685A1.372 1.372 0 0 1 24 28.885ZM24.093 17.215a.32.32 0 0 1-.186 0l-2.76-.789-.188 1.488h6.082l-.188-1.488-2.76.789ZM15.833 32.314a1.03 1.03 0 0 1-.062-.342v-.343a.688.688 0 0 1 .686-.686v-.994a1.715 1.715 0 0 0-1.227 2.365h.603ZM14.4 33h19.2v.686H14.4V33ZM32.229 31.629v.343a1.03 1.03 0 0 1-.062.342h.603c.094-.216.143-.45.144-.685a1.72 1.72 0 0 0-1.371-1.68v.994a.688.688 0 0 1 .686.686ZM32.229 27.172a1.034 1.034 0 0 0-.686-.97v3.054c.237.034.468.103.686.206v-2.29ZM16.457 26.201a1.033 1.033 0 0 0-.686.97v2.29c.217-.102.449-.17.686-.205v-3.055ZM16.457 31.971a.343.343 0 0 0 .343.343h14.4a.343.343 0 0 0 .343-.343v-.342H16.457v.342ZM22.07 23.4h3.857c.09-.066.175-.14.254-.22a3.066 3.066 0 0 0 .905-2.18v-.686a.686.686 0 0 0 0-1.371V18.6h-6.172v.343a.686.686 0 1 0 0 1.371V21a3.098 3.098 0 0 0 1.156 2.4Zm2.959-3.428a.343.343 0 1 1 .685 0v.685a.343.343 0 1 1-.685 0v-.686Zm-2.743 0a.343.343 0 1 1 .685 0v.685a.343.343 0 1 1-.685 0v-.686Zm.685 2.057c0 .085.365.343 1.029.343.664 0 1.029-.258 1.029-.343h.685c0 .586-.736 1.028-1.714 1.028-.977 0-1.714-.442-1.714-1.028h.685Z" fill="#B84DC5"/><path d="M27.429 15.686v2.571h.685v-2.743L24 13.8l-4.114 1.714L24 16.543l3.429-.857Z" fill="#B84DC5"/></svg>
